!!!OTL: Das Leben ist ein Traum (3-44), S. 116
!!!id: K1177
**kern
*clefG2
*k[]
*C:
{8g
8g
8f
=1
4e
4e
8.e
16e
8d
8e
=2
4f
8.d
16d
8d}
=3
{8g
8g
8g
=4
4.g
8g
8g
8g
8.a
16g
=5
4g
8.e
16e
8e}
=6
{8g
8e
8g
=7
4cc
4b
8.a
16g
8.a
16cc
=8
4g}
8r
=9
{8e
8f
8e
8d
8a
=10
4a
4g
4f
4g
=11
2e}
8r
=12
{8g
8e
8g
=13
4cc
4b
8.a
16g
8.a
16cc
=14
4g}
8r
=15
{8e
8f
8e
8d
8a
=16
4a
4g
4f
4g
=17
2e}
8r
==
*-
!!!minrhy: 16
!!!meters: 4/4 ]  ZZ[6
!!!cut: Das Leben ist ein Traum (3-44), S. 116
!!!reg: Luxemburg
!!!trd: KINTZELE, Guillaume: An der Ucht, Bd. 3 Luxemburg 1928
!!!rhy1: X_X_X_  X__X__X_.XX_X_  X__X_.XX_
!!!rhy2: X_X_X_  X__.X_X_X_X_.X  X__X_.XX_
!!!key: K1177  16  C 4/4 ]  ZZ[6
!!!mod: HEPTATONIK IONISCH]  AMBITUS[7b
!!!kad: 235353
!!!akz: 3342_5553_+165_4643_+165_4643_
!!!fot: 'a__b__c__d__c__d__
!!!for: 'a__b__c__d__c__d__
!!!fok: 'Sd_\__M__^__M__^__
!! PHRAS[AUFTAKTIG]
!!!fkt: Jagdlied?
!!!bem: in der Quelle mit einer 2. Stimme versehen
!! KINTZELE
!! PR[10] 2K[4] 2G[6] 3K[12] 3G[7] 4A[6] 4Ü[0] 5A[0] 6K[0] 6G[6]
!! 7K[0] 7G[0] 8A[0] MEHR[0] SI[41] ABS[69] SR[10] SP[30]
!! ST[20] 2k[4] 2g[22] 3k[6] 3g[1] 4d[7] 4ü[0] 5d[6] 6k[3] 6g[0]
!! 7k[0] 7g[0] 8d[0] mehr[0] si[49] dm[-8] sr[26] sp[23]
!! 1F[47] 2F[47] 3F[0] 4F[0] LF[0] 2P[7] 3P[0] 4P[0] TRI[0] DF[3] AB[75]
!! TF[0] U3K[0] U3[0] U4[0] U4Ü[0] U5[0] U6K[0] U6[0] U7K[0] U7[3]
!! N1[3] N2K[0] N2[14] N3K[0] N3[11] N4[3] N4Ü[1] N5[26] N6K[0] N6[14]
!!!n7k: 0] N7[16] O1[7] O2K[0] O2[1] O3K[0] O3[0] HÖ[0
